X: 25
T: Man Of The House, The
Z: Erik-Fiddler
S: https://thesession.org/tunes/222#setting52647
R: reel
M: 4/4
L: 1/8
K: Dmin
|:D2 AD FGAF|DAAF GECE|[D2A,2] AD E/F/G Ad|1 cAGB AFGE:|2 cAGB ADFA||
defd efge|{g}fedf edcA|[D3d3] e [f3A3] a|gece fdde|
fcAc fgaf|{a}gfaf {a}gfdf|af ~{a}(3f/e/f/f dfce|dcAG E/F/G AF||

%-------------------- TUNE SEPARATOR --------------------%

